X: 4353
T: Bold Deserter, The
R: reel
M: 4/4
K: Dmajor
fe|d2A2 B2AF|ABde fedB|AFEF D2D2|D6 DE|
|:F2A2 d2ef|g2f2 e2de|fedB AFEF|1 A6 AG:|2 A6 fe||
d2A2 B2AF|ABde fedB|AFEF D2D2|D4 z2||

